coreui/free/cil-arrow-thick-to-top.svg

<svg xmlns="http://www.w3.org/2000/svg" viewBox="0 0 512 512">
  <path fill="var(--ci-primary-color, currentColor)" d="M56,297.365V336H176V496H336V336H456V297.374l-199.8-200ZM304,304V464H208V304H94.639l161.535-161.37L417.384,304Z" class="ci-primary"/>
  <rect width="400" height="32" x="56" y="16.002" fill="var(--ci-primary-color, currentColor)" class="ci-primary"/>
</svg>

<svg viewBox="0 0 512 512" xmlns="http://www.w3.org/2000/svg"><g><path d="M56 297.365v38.63h120v160h160v-160h120v-38.63l-199.8-200Zm248 6.63v160h-96v-160H94.639l161.53-161.37 161.21 161.37Z"/><path d="M56 16h400v32H56Z"/></g></svg>
